X: 583
T: Da maruru
%%abc-version 2.0
%%abcx-abcm2ps-target-version 5.9.1 (29 Sep 2008)
%%abc-creator hum2abc beta
%%abcx-conversion-date 2013/10/02 07:52:30
%%abc-edited-by Helmut Schaffrath
%%humdrum-veritas 4034982504
%%humdrum-veritas-data 2535663653
%%continueall 1
%%barnumbers 0
L: 1/8
M: 2/4
K: A
c> ec2 [I:setbarnb 1]| 
B B B B | 
c> e c B | 
A4 | 
c> ec2 | 
B B B c | 
E3F | 
A2G F | 
E F E C | 
B,4 |]  



